Gurmukhi/0A32.svg

<svg enable-background="new 0 0 336 592" viewBox="0 0 336 592" xmlns="http://www.w3.org/2000/svg"><path d="m238.491699 382.693298c-11.546829 5.60614-23.628952 6.690766-35.812011 7.227936-4.07985.179871-6.431092-2.260162-6.709473-5.921753-.428269-5.63324-.167282-11.319916-.172272-16.983917-.002685-3.043121 2.077789-3.272553 4.436417-3.380493 6.656448-.304688 13.294418-.905609 19.664123-3.017121 19.300782-6.398254 26.867539-19.863586 21.745148-39.509826-4.353104-16.69574-15.723022-28.043884-29.857758-37.983612-9.934982 19.736755-20.767517 38.122558-36.065948 54.040466-14.149643-14.441803-23.554825-31.430817-32.58876-48.559906-17.098305 7.723633-34.486306 27.520233-32.735024 47.154022 1.086433 12.180115 8.660431 19.382599 19.416267 23.763062 7.030228 2.863159 14.498215 3.769104 21.992951 4.041809 4.473389.162781 6.392044 2.332886 6.485275 6.438629.121018 5.329163-.054031 10.6651.072601 15.993988.073548 3.094849-1.431564 4.124817-4.260742 4.088501-33.018638-.42395-60.100311-16.116852-65.033058-53.262878-3.073944-23.148377 6.147637-42.341187 23.154328-57.9245 4.918396-4.506714 10.076667-8.761139 15.890098-12.071594 2.838623-1.616486 3.436585-3.4487 2.36908-6.501312-4.455574-12.741074-7.872406-25.766205-9.872086-39.128846-.522201-3.489486-2.626747-4.092331-5.653686-4.071548-12.3294.084701-24.662217-.102966-36.988213.118866-3.95919.071274-6.205238-1.13971-7.327995-5.019699-1.01442-3.505585-2.623764-6.834854-3.863709-10.28038-1.709404-4.750153-.562324-6.685959 4.479744-6.755936 10.650871-.147843 21.303078.094314 31.959221.049087 57.150192-.242599 114.302078-.063202 171.45285-.220077 4.9198-.013489 7.822083 1.204941 8.985047 6.249344.702362 3.046295 2.39273 5.850662 3.409759 8.841736 1.654114 4.864807.211212 6.983551-4.92337 7.014526-14.495575.087418-28.995728.230804-43.485825-.059509-4.805786-.096268-6.674698 1.481002-7.462814 6.206314-2.137039 12.813003-5.527008 25.356781-10.133804 37.50824-1.355713 3.576019-.939911 5.504882 2.275543 7.81491 16.366226 11.757721 30.103714 25.820191 37.198471 45.217194 4.736359 12.949249 6.074097 26.231018 2.460754 39.678101-3.57727 13.312835-11.935058 22.829467-24.501129 29.206176m-70.991699-165.510223c-9.105362 0-18.210739 0-28.043365 0 5.043273 32.01683 14.711395 61.241028 32.948379 87.586304 15.78949-15.399536 35.50499-69.811097 35.40744-87.585312-13.093216 0-26.202835 0-40.312454-.000992z"/></svg>

<svg version="1.1" id="Layer_1" xmlns="http://www.w3.org/2000/svg" xmlns:xlink="http://www.w3.org/1999/xlink" x="0px" y="0px"
	 width="100%" viewBox="0 0 336 592" enable-background="new 0 0 336 592" xml:space="preserve">
<path fill="#000000" opacity="1.000000" stroke="none" 
	d="
M238.491699,382.693298 
	C226.944870,388.299438 214.862747,389.384064 202.679688,389.921234 
	C198.599838,390.101105 196.248596,387.661072 195.970215,383.999481 
	C195.541946,378.366241 195.802933,372.679565 195.797943,367.015564 
	C195.795258,363.972443 197.875732,363.743011 200.234360,363.635071 
	C206.890808,363.330383 213.528778,362.729462 219.898483,360.617950 
	C239.199265,354.219696 246.766022,340.754364 241.643631,321.108124 
	C237.290527,304.412384 225.920609,293.064240 211.785873,283.124512 
	C201.850891,302.861267 191.018356,321.247070 175.719925,337.164978 
	C161.570282,322.723175 152.165100,305.734161 143.131165,288.605072 
	C126.032860,296.328705 108.644859,316.125305 110.396141,335.759094 
	C111.482574,347.939209 119.056572,355.141693 129.812408,359.522156 
	C136.842636,362.385315 144.310623,363.291260 151.805359,363.563965 
	C156.278748,363.726746 158.197403,365.896851 158.290634,370.002594 
	C158.411652,375.331757 158.236603,380.667694 158.363235,385.996582 
	C158.436783,389.091431 156.931671,390.121399 154.102493,390.085083 
	C121.083855,389.661133 94.002182,373.968231 89.069435,336.822205 
	C85.995491,313.673828 95.217072,294.481018 112.223763,278.897705 
	C117.142159,274.390991 122.300430,270.136566 128.113861,266.826111 
	C130.952484,265.209625 131.550446,263.377411 130.482941,260.324799 
	C126.027367,247.583725 122.610535,234.558594 120.610855,221.195953 
	C120.088654,217.706467 117.984108,217.103622 114.957169,217.124405 
	C102.627769,217.209106 90.294952,217.021439 77.968956,217.243271 
	C74.009766,217.314545 71.763718,216.103561 70.640961,212.223572 
	C69.626541,208.717987 68.017197,205.388718 66.777252,201.943192 
	C65.067848,197.193039 66.214928,195.257233 71.256996,195.187256 
	C81.907867,195.039413 92.560074,195.281570 103.216217,195.236343 
	C160.366409,194.993744 217.518295,195.173141 274.669067,195.016266 
	C279.588867,195.002777 282.491150,196.221207 283.654114,201.265610 
	C284.356476,204.311905 286.046844,207.116272 287.063873,210.107346 
	C288.717987,214.972153 287.275085,217.090897 282.140503,217.121872 
	C267.644928,217.209290 253.144775,217.352676 238.654678,217.062363 
	C233.848892,216.966095 231.979980,218.543365 231.191864,223.268677 
	C229.054825,236.081680 225.664856,248.625458 221.058060,260.776917 
	C219.702347,264.352936 220.118149,266.281799 223.333603,268.591827 
	C239.699829,280.349548 253.437317,294.412018 260.532074,313.809021 
	C265.268433,326.758270 266.606171,340.040039 262.992828,353.487122 
	C259.415558,366.799957 251.057770,376.316589 238.491699,382.693298 
M167.500000,217.183075 
	C158.394638,217.183075 149.289261,217.183075 139.456635,217.183075 
	C144.499908,249.199905 154.168030,278.424103 172.405014,304.769379 
	C188.194504,289.369843 207.910004,234.958282 207.812454,217.184067 
	C194.719238,217.184067 181.609619,217.184067 167.500000,217.183075 
z"/>
</svg>
